packages/crayons-icon/icons/portal.svg

<?xml version="1.0" encoding="UTF-8"?>
<svg width="16px" height="16px" viewBox="0 0 16 16" version="1.1" xmlns="http://www.w3.org/2000/svg" xmlns:xlink="http://www.w3.org/1999/xlink">
    <!-- Generator: Sketch 52.6 (67491) - http://www.bohemiancoding.com/sketch -->
    <title>icon/portal</title>
    <desc>Created with Sketch.</desc>
    <g id="Icons-✅" stroke="none" stroke-width="1" fill="none" fill-rule="evenodd">
        <g id="Icons" transform="translate(-654.000000, -1332.000000)" fill="currentColor">
            <g id="icon/portal" transform="translate(654.000000, 1332.000000)">
                <g id="portal">
                    <path d="M15.51,10.71 C16.14979,8.97372956 16.14979,7.06627044 15.51,5.33 C14.3827846,2.14614949 11.3774759,0.0132206784 8,-8.8817842e-16 C4.62918515,0.00295471655 1.62186267,2.11847811 0.48,5.29 C-0.146916893,7.02854363 -0.146916893,8.93145637 0.48,10.67 C1.60845056,13.8572952 4.61885079,15.9909964 8,16 C11.3671465,15.9928373 14.3693841,13.8780787 15.51,10.71 Z M6.08,11.13 L9.92,11.13 C9.49863378,12.3075111 8.84580715,13.3887552 8,14.31 C7.15419285,13.3887552 6.50136622,12.3075111 6.08,11.13 Z M5.7,9.73 C5.59100061,9.15984258 5.53741768,8.58047711 5.54,8 C5.53741768,7.41952289 5.59100061,6.84015742 5.7,6.27 L10.3,6.27 C10.4089994,6.84015742 10.4625823,7.41952289 10.46,8 C10.4625823,8.58047711 10.4089994,9.15984258 10.3,9.73 L5.7,9.73 Z M1.4,8 C1.4026514,7.4152222 1.48336443,6.83341584 1.64,6.27 L4.29,6.27 C4.19411393,6.84176526 4.1439551,7.42026385 4.14,8 C4.1439551,8.57973615 4.19411393,9.15823474 4.29,9.73 L1.64,9.73 C1.48336443,9.16658416 1.4026514,8.5847778 1.4,8 Z M8,1.69 C8.84580715,2.61124483 9.49863378,3.69248895 9.92,4.87 L6.08,4.87 C6.50136622,3.69248895 7.15419285,2.61124483 8,1.69 Z M11.71,6.27 L14.36,6.27 C14.6797495,7.40117155 14.6797495,8.59882845 14.36,9.73 L11.71,9.73 C11.8058861,9.15823474 11.8560449,8.57973615 11.86,8 C11.8560449,7.42026385 11.8058861,6.84176526 11.71,6.27 Z M13.8,4.87 L11.4,4.87 C11.0405648,3.71115682 10.485931,2.62218073 9.76,1.65 C11.4887937,2.12873552 12.9477181,3.29154163 13.8,4.87 Z M6.24,1.65 C5.51406901,2.62218073 4.95943522,3.71115682 4.6,4.87 L2.19,4.87 C3.04638353,3.2909414 4.50854868,2.12842985 6.24,1.65 Z M2.19,11.13 L4.6,11.13 C4.95943522,12.2888432 5.51406901,13.3778193 6.24,14.35 C4.50854868,13.8715702 3.04638353,12.7090586 2.19,11.13 Z M9.76,14.35 C10.485931,13.3778193 11.0405648,12.2888432 11.4,11.13 L13.8,11.13 C12.9477181,12.7084584 11.4887937,13.8712645 9.76,14.35 Z" id="Shape"></path>
                </g>
            </g>
        </g>
    </g>
</svg>

<svg viewBox="0 0 16 16"><path d="M15.51 10.71a7.78 7.78 0 0 0 0-5.38A8 8 0 0 0 8 0 8 8 0 0 0 .48 5.29a7.93 7.93 0 0 0 0 5.38A8 8 0 0 0 8 16a8 8 0 0 0 7.51-5.29zm-9.43.42h3.84A9.37 9.37 0 0 1 8 14.31a9.37 9.37 0 0 1-1.92-3.18zm-.38-1.4A9 9 0 0 1 5.54 8a9 9 0 0 1 .16-1.73h4.6A9 9 0 0 1 10.46 8a9 9 0 0 1-.16 1.73H5.7zM1.4 8a6.57 6.57 0 0 1 .24-1.73h2.65A10.91 10.91 0 0 0 4.14 8c.004.58.054 1.158.15 1.73H1.64A6.57 6.57 0 0 1 1.4 8zM8 1.69a9.37 9.37 0 0 1 1.92 3.18H6.08A9.37 9.37 0 0 1 8 1.69zm3.71 4.58h2.65a6.36 6.36 0 0 1 0 3.46h-2.65c.096-.572.146-1.15.15-1.73a10.91 10.91 0 0 0-.15-1.73zm2.09-1.4h-2.4a10.66 10.66 0 0 0-1.64-3.22 6.59 6.59 0 0 1 4.04 3.22zM6.24 1.65A10.66 10.66 0 0 0 4.6 4.87H2.19a6.61 6.61 0 0 1 4.05-3.22zm-4.05 9.48H4.6a10.66 10.66 0 0 0 1.64 3.22 6.61 6.61 0 0 1-4.05-3.22zm7.57 3.22a10.66 10.66 0 0 0 1.64-3.22h2.4a6.59 6.59 0 0 1-4.04 3.22z" fill="currentColor" fill-rule="evenodd"/></svg>
